X:1
T:Title
%%score { ( 1 3 4 ) | ( 2 5 ) }
L:1/8
Q:1/4=116
M:3/4
K:G
V:1 treble nm="Grand Piano"
V:3 treble 
V:4 treble 
V:2 treble 
V:5 treble 
V:1
 d2 d2 c2 | B2 B2 GA | [GB]2 [GB]2 [FA]2 | G6 | [Ec]2 [Gc]2 [Ec]2 | B2 B2 G2 | E2 F2 G2 | A6 | %8
w: Charles~H.~Maskell * *||||||||
 d2 d2 c2 | B2 B2 z A | [GB]2 [GB]2 [FA]2 | G6 | E2 [EG]2 [Ge]2 | d2 B2 G2 | [Ec]2 [DB]2 [CA]2 | %15
w: |||||||
[M:2/4] [B,G]4 |[M:1/4] z2 |[M:3/4] [Ge]2 [Ge]2 [Ge]2 | [Gd]4 z2 | [Fc]2 [Ac]2 [Fc]2 | B4 z2 | %21
w: ||||||
 [FA]2 [Fd]2 [FA]2 | B2 d2 B2 | A2 d2 ^c2 | [Fd]4 [Fd]2 | d2 d2 c2 | B2 B2 z A | %27
w: ||||||
 [GB]2 [GB]2 [FA]2 | G6 | E2 [EG]2 [Ge]2 | d2 B2 G2 | %31
w: ||||
 [Ec]2 [DB]2 [CA]2[Q:1/4=114][Q:1/4=112][Q:1/4=111][Q:1/4=109][Q:1/4=107][Q:1/4=105][Q:1/4=103][Q:1/4=102][Q:1/4=100][Q:1/4=98][Q:1/4=96][Q:1/4=94][Q:1/4=92][Q:1/4=91][Q:1/4=89] | %32
w: |
[M:9/8] [B,G]8- [B,G] |] %33
w: |
V:2
 [B,DG]2 [B,DG]2 [A,DF]2 | [G,DG]2 [G,DG]2[K:bass] [E,^C]2 | [D,D]2 [D,D]2 [D,C]2 | [G,B,]6 | %4
 [C,C]2 [E,C]2 [C,C]2 | [G,DG]2 [G,DG]2[K:bass] [G,B,D]2 | [G,A,^C]2 [F,A,C]2 [E,A,C]2 | D4 z2 | %8
 [B,DG]2 [B,DG]2 [A,DF]2 | [G,DG]2 [G,DG]2[K:bass] [E,^C]2 | [D,D]2 [D,D]2 [^D,C]2 | [E,E]4 z2 | %12
 [C,C]2 [C,C]2 [C,C]2 | [G,B,G]2 [G,B,D]2[K:bass] [E,B,E]2 | [A,,A,]2 [D,F,]2 [D,F,]2 | %15
[M:2/4] [G,,G,]4 |[M:1/4] [G,G]2 |[M:3/4] [C,C]2 [E,C]2 [C,C]2 | [G,B,]2 B,2 [G,B,]2 | %19
 [D,A,]2 [F,D]2 [D,D]2 | [DG]4 [G,DG]2 | [D,D]2 [D,D]2 [D,D]2 | [G,DG]2 [G,B,G]2 [^G,D=F]2 | %23
 [A,DF]2 [A,DF]2 [A,EG]2 | z2 A,B, [D,C]2 | [B,DG]2 [B,DG]2 [A,DF]2 | %26
 [G,DG]2 [G,DG]2[K:bass] [E,^C]2 | [D,D]2 [D,D]2 [D,C]2 | [E,E]4 z2 | [C,C]2 [C,C]2 [C,C]2 | %30
 [G,B,G]2 [G,B,D]2[K:bass] [E,B,E]2 | [A,,A,]2 [D,F,]2 [D,F,]2 |[M:9/8] [G,,G,]8- [G,,G,] |] %33
V:3
 x6 | x6 | x6 | z2 z2 =F2 | x6 | x6 | x6 | z E FE z C | x6 | z2 z2 G2 | x6 | z2 z2 =F2 | x6 | x6 | %14
 x6 |[M:2/4] x4 |[M:1/4] x2 |[M:3/4] x6 | z2 D2 G2 | x6 | z2 B,2 B2 | x6 | x6 | x6 | D2 z2 z2 | %25
 x6 | z2 z2 G2 | x6 | z2 z2 =F2 | x6 | x6 | x6 |[M:9/8] x9 |] %33
V:4
 x6 | x6 | x6 | x6 | x6 | x6 | x6 | z2 z2 D2 | x6 | x6 | x6 | x6 | x6 | x6 | x6 |[M:2/4] x4 | %16
[M:1/4] x2 |[M:3/4] x6 | x6 | x6 | x6 | x6 | x6 | x6 | x6 | x6 | x6 | x6 | x6 | x6 | x6 | x6 | %32
[M:9/8] x9 |] %33
V:5
 x6 | x4[K:bass] x2 | x6 | x6 | x6 | x4[K:bass] x2 | x6 | [D,F,]6 | x6 | x4[K:bass] x2 | x6 | %11
 B,4- [D,B,]2 | x6 | x4[K:bass] x2 | x6 |[M:2/4] x4 |[M:1/4] x2 |[M:3/4] x6 | x6 | x6 | G,2 z2 z2 | %21
 x6 | x6 | x6 | D,4 z2 | x6 | x4[K:bass] x2 | x6 | B,4- [D,B,]2 | x6 | x4[K:bass] x2 | x6 | %32
[M:9/8] x9 |] %33

